humanity-icon-theme/Humanity/actions/32/bookmark-new.svg

<?xml version="1.0" encoding="UTF-8" standalone="no"?>
<!-- Created with Inkscape (http://www.inkscape.org/) -->

<svg
   xmlns:svg="http://www.w3.org/2000/svg"
   xmlns="http://www.w3.org/2000/svg"
   xmlns:xlink="http://www.w3.org/1999/xlink"
   version="1.1"
   width="32"
   height="32"
   id="svg3899">
  <defs
     id="defs3901">
    <linearGradient
       x1="11.566265"
       y1="22.292103"
       x2="15.214532"
       y2="33.95525"
       id="linearGradient3855"
       xlink:href="#linearGradient8265-821-176-38-919-66-249"
       gradientUnits="userSpaceOnUse"
       gradientTransform="matrix(0.64444615,0,0,0.64444615,2.163877,14.811363)" />
    <linearGradient
       id="linearGradient8265-821-176-38-919-66-249">
      <stop
         id="stop2687"
         style="stop-color:#ffffff;stop-opacity:0.27450982"
         offset="0" />
      <stop
         id="stop2689"
         style="stop-color:#ffffff;stop-opacity:0"
         offset="1" />
    </linearGradient>
    <linearGradient
       x1="29.646643"
       y1="2"
       x2="29.646643"
       y2="43.443626"
       id="linearGradient3851"
       xlink:href="#linearGradient3642"
       gradientUnits="userSpaceOnUse"
       gradientTransform="matrix(0.64444615,0,0,0.64444615,0.24348387,16.823102)" />
    <linearGradient
       id="linearGradient3642">
      <stop
         id="stop3644"
         style="stop-color:#ffffff;stop-opacity:1"
         offset="0" />
      <stop
         id="stop3646"
         style="stop-color:#ffffff;stop-opacity:0"
         offset="1" />
    </linearGradient>
    <radialGradient
       cx="13.138569"
       cy="25.625349"
       r="13.931416"
       fx="13.138569"
       fy="25.625349"
       id="radialGradient3627"
       xlink:href="#linearGradient3690"
       gradientUnits="userSpaceOnUse"
       gradientTransform="matrix(0,1.7104018,-2.0382599,0,63.162289,-16.657885)" />
    <linearGradient
       id="linearGradient3690">
      <stop
         id="stop3692"
         style="stop-color:#ffeb9f;stop-opacity:1"
         offset="0" />
      <stop
         id="stop3694"
         style="stop-color:#ffd57e;stop-opacity:1"
         offset="0.26238" />
      <stop
         id="stop3696"
         style="stop-color:#ffbc43;stop-opacity:1"
         offset="0.66093999" />
      <stop
         id="stop3698"
         style="stop-color:#ff921a;stop-opacity:1"
         offset="1" />
    </linearGradient>
    <linearGradient
       x1="21.483376"
       y1="36.255058"
       x2="21.483376"
       y2="9.5799999"
       id="linearGradient3629"
       xlink:href="#linearGradient3603"
       gradientUnits="userSpaceOnUse"
       gradientTransform="matrix(1.0639038,0,0,1.0677384,-6.8562072,-9.162926)" />
    <linearGradient
       id="linearGradient3603">
      <stop
         id="stop3605"
         style="stop-color:#a7651c;stop-opacity:1"
         offset="0" />
      <stop
         id="stop3607"
         style="stop-color:#c8a700;stop-opacity:1"
         offset="1" />
    </linearGradient>
    <linearGradient
       id="linearGradient8838">
      <stop
         id="stop8840"
         style="stop-color:#000000;stop-opacity:1"
         offset="0" />
      <stop
         id="stop8842"
         style="stop-color:#000000;stop-opacity:0"
         offset="1" />
    </linearGradient>
    <radialGradient
       cx="62.625"
       cy="4.625"
       r="10.625"
       fx="62.625"
       fy="4.625"
       id="radialGradient3897"
       xlink:href="#linearGradient8838"
       gradientUnits="userSpaceOnUse"
       gradientTransform="matrix(1.4117648,0,0,0.56470513,-72.411731,23.388235)" />
    <linearGradient
       x1="24.138529"
       y1="7.0478544"
       x2="24.138529"
       y2="39.268391"
       id="linearGradient5530"
       xlink:href="#linearGradient3943"
       gradientUnits="userSpaceOnUse"
       gradientTransform="matrix(0.37573149,0,0,0.37346493,16.248216,14.686334)" />
    <linearGradient
       id="linearGradient3943">
      <stop
         id="stop3945"
         style="stop-color:#ffffff;stop-opacity:1"
         offset="0" />
      <stop
         id="stop3947"
         style="stop-color:#ffffff;stop-opacity:0"
         offset="1" />
    </linearGradient>
    <linearGradient
       id="linearGradient3242-7">
      <stop
         id="stop3244-5"
         style="stop-color:#eef87e;stop-opacity:1"
         offset="0" />
      <stop
         id="stop3246-9"
         style="stop-color:#cde34f;stop-opacity:1"
         offset="0.26238" />
      <stop
         id="stop3248-7"
         style="stop-color:#93b723;stop-opacity:1"
         offset="0.66093999" />
      <stop
         id="stop3250-8"
         style="stop-color:#5a7e0d;stop-opacity:1"
         offset="1" />
    </linearGradient>
    <linearGradient
       id="linearGradient2490-3">
      <stop
         id="stop2492-3"
         style="stop-color:#365f0e;stop-opacity:1"
         offset="0" />
      <stop
         id="stop2494-8"
         style="stop-color:#84a718;stop-opacity:1"
         offset="1" />
    </linearGradient>
    <radialGradient
       cx="69.447609"
       cy="51.694645"
       r="31.000002"
       fx="69.447609"
       fy="51.694645"
       id="radialGradient2885"
       xlink:href="#linearGradient3242-7"
       gradientUnits="userSpaceOnUse"
       gradientTransform="matrix(0,0.46490462,-0.50575881,0,49.573765,-14.295749)" />
    <linearGradient
       x1="72.421684"
       y1="124.75623"
       x2="72.421684"
       y2="51.244411"
       id="linearGradient2887"
       xlink:href="#linearGradient2490-3"
       gradientUnits="userSpaceOnUse"
       gradientTransform="matrix(0.19311403,0,0,0.19469352,8.0059643,5.860099)" />
  </defs>
  <g
     id="layer1">
    <path
       d="m 31.000038,25.999999 c 0,3.313709 -6.715729,6.000001 -15,6.000001 C 7.7157681,32 1.0000383,29.313708 1.0000383,25.999999 1.0000383,22.686292 7.7157681,20 16.000038,20 c 8.284271,0 15,2.686292 15,5.999999 l 0,0 z"
       id="path8836"
       style="opacity:0.3;fill:url(#radialGradient3897);fill-opacity:1;fill-rule:evenodd;stroke:none;stroke-width:0.99999988;marker:none;visibility:visible;display:inline;overflow:visible" />
    <path
       d="m 16.000037,1.4974327 c 0.978784,0 4.13436,7.910881 4.926214,8.488271 0.791851,0.5773873 9.263652,1.1447403 9.566113,2.0789733 0.302461,0.934234 -6.219087,6.39078 -6.521548,7.325013 -0.30246,0.934233 1.777824,9.195756 0.985972,9.773145 -0.791853,0.577387 -7.977967,-3.961163 -8.956752,-3.961163 -0.978783,0 -8.1648972,4.53855 -8.9567501,3.961163 C 6.251434,28.585446 8.331718,20.323922 8.0292575,19.38969 7.7267971,18.455457 1.2052494,12.99891 1.5077102,12.064675 1.810171,11.130444 10.281971,10.563091 11.073825,9.9857037 c 0.791852,-0.57739 3.947429,-8.488271 4.926212,-8.488271 z"
       id="path1307"
       style="fill:url(#radialGradient3627);fill-opacity:1;fill-rule:nonzero;stroke:url(#linearGradient3629);stroke-width:0.9922713;stroke-linecap:butt;stroke-linejoin:round;stroke-miterlimit:4;stroke-opacity:1;stroke-dasharray:none;stroke-dashoffset:0;marker:none;visibility:visible;display:inline;overflow:visible" />
    <path
       d="m 24.028527,28.150722 c 0,0 -2.782985,-2.41192 -6.493633,-3.154048"
       id="path11014"
       style="opacity:0.3;fill:none;stroke:#ffffff;stroke-width:1;stroke-linecap:butt;stroke-linejoin:miter;stroke-miterlimit:4;stroke-opacity:1;stroke-dasharray:none;display:inline" />
    <path
       d="m 7.7354146,28.150722 c 0,0 2.7829854,-2.41192 6.4936324,-3.154048"
       id="path11985"
       style="opacity:0.3;fill:none;stroke:#ffffff;stroke-width:1;stroke-linecap:butt;stroke-linejoin:miter;stroke-miterlimit:4;stroke-opacity:1;stroke-dasharray:none;display:inline" />
    <path
       d="m 15.71875,19.21875 c -1.347465,2.602599 -2.711843,5.352411 -4.0625,7.9375 a 0.33523869,0.33523869 0 0 1 -0.25,0.1875 C 8.5003276,27.817593 5.4861358,28.334166 2.5625,28.8125 4.6179266,30.901979 6.6017364,33.065692 8.65625,35.125 A 0.33523869,0.33523869 0 0 1 8.75,35.4375 c -0.4392958,2.859818 -0.6802268,5.603726 -1.09375,8.46875 l 7.875,-3.9375 a 0.33523869,0.33523869 0 0 1 0.3125,0 L 23.75,43.90625 C 23.325996,41.056058 23.002636,38.365282 22.5625,35.5 a 0.33523869,0.33523869 0 0 1 0.0625,-0.25 0.33523869,0.33523869 0 0 1 0.03125,-0.0625 C 24.724574,33.114348 26.797672,30.914774 28.875,28.8125 26.120244,28.182918 22.935455,27.822408 20,27.34375 A 0.33523869,0.33523869 0 0 1 19.84375,27.25 0.33523869,0.33523869 0 0 1 19.75,27.15625 c -1.351345,-2.586406 -2.688575,-5.336553 -4.03125,-7.9375 z"
       transform="translate(0.28984682,-16.289846)"
       id="path3849"
       style="opacity:0.4;fill:none;stroke:url(#linearGradient3851);stroke-width:1;stroke-linecap:butt;stroke-linejoin:round;stroke-miterlimit:4;stroke-opacity:1;stroke-dasharray:none;stroke-dashoffset:0;marker:none;visibility:visible;display:inline;overflow:visible" />
    <path
       d="m 15.71875,18.53125 c -0.254446,0.374093 -2.346828,3.472786 -4.375,8.25 A 0.20608164,0.20608164 0 0 1 11.3125,26.8125 0.20608164,0.20608164 0 0 1 11.21875,26.875 0.20608164,0.20608164 0 0 1 11.1875,26.90625 c -3.0053006,0.490049 -7.0029859,1.038743 -9.3125,1.6875 1.5783275,2.00052 3.5604578,3.737007 5.34375,5.5625 l 20.25,-3.59375 c 0.582787,-0.584147 1.71282,-1.713072 2,-2 -2.871985,-0.776885 -6.239483,-1.134102 -9.25,-1.625 A 0.20608164,0.20608164 0 0 1 20.1875,26.90625 0.20608164,0.20608164 0 0 1 20.09375,26.84375 0.20608164,0.20608164 0 0 1 20.0625,26.8125 c -1.525162,-3.540869 -4.056294,-7.800982 -4.34375,-8.28125 z"
       transform="translate(0.28984682,-16.289846)"
       id="path3853"
       style="opacity:0.8;fill:url(#linearGradient3855);fill-opacity:1;fill-rule:nonzero;stroke:none;stroke-width:1;marker:none;visibility:visible;display:inline;overflow:visible;enable-background:accumulate" />
    <path
       d="m 22.5,20.5 0,-4.021022 5,0 0,4.021022 4.007287,0 0,5 -4.007287,0 0,4.007286 -5,0 0,-4.007286 -4.007286,0 0,-5 4.007286,0 z"
       id="path2262"
       style="color:#000000;fill:url(#radialGradient2885);fill-opacity:1;fill-rule:nonzero;stroke:url(#linearGradient2887);stroke-width:0.98542744;stroke-linecap:round;stroke-linejoin:round;stroke-miterlimit:4;stroke-opacity:1;stroke-dasharray:none;stroke-dashoffset:0;marker:none;visibility:visible;display:inline;overflow:visible;enable-background:accumulate" />
    <path
       d="m 23.5,21.5 0,-4 3,0 0,4 4.02,0 0,3 -4.02,0 0,4 -3,0 0,-4 -4,0 0,-3 4,0 z"
       id="path2272"
       style="opacity:0.4;fill:none;stroke:url(#linearGradient5530);stroke-width:1;stroke-linecap:butt;stroke-linejoin:miter;stroke-miterlimit:4;stroke-opacity:1;stroke-dasharray:none;display:inline" />
  </g>
</svg>

<?xml version="1.0" encoding="UTF-8" standalone="no"?>
<!-- Created with Inkscape (http://www.inkscape.org/) -->
<svg id="svg3899" xmlns="http://www.w3.org/2000/svg" height="32" width="32" version="1.1" xmlns:xlink="http://www.w3.org/1999/xlink">
 <defs id="defs3901">
  <linearGradient id="linearGradient3855" y2="33.955" gradientUnits="userSpaceOnUse" x2="15.215" gradientTransform="matrix(.64445 0 0 .64445 2.1639 14.811)" y1="22.292" x1="11.566">
   <stop id="stop2687" style="stop-color:#fff;stop-opacity:.27451" offset="0"/>
   <stop id="stop2689" style="stop-color:#fff;stop-opacity:0" offset="1"/>
  </linearGradient>
  <linearGradient id="linearGradient3851" y2="43.444" gradientUnits="userSpaceOnUse" x2="29.647" gradientTransform="matrix(.64445 0 0 .64445 .24348 16.823)" y1="2" x1="29.647">
   <stop id="stop3644" style="stop-color:#fff" offset="0"/>
   <stop id="stop3646" style="stop-color:#fff;stop-opacity:0" offset="1"/>
  </linearGradient>
  <radialGradient id="radialGradient3627" gradientUnits="userSpaceOnUse" cy="25.625" cx="13.139" gradientTransform="matrix(0 1.7104 -2.0383 0 63.162 -16.658)" r="13.931">
   <stop id="stop3692" style="stop-color:#ffeb9f" offset="0"/>
   <stop id="stop3694" style="stop-color:#ffd57e" offset=".26238"/>
   <stop id="stop3696" style="stop-color:#ffbc43" offset=".66094"/>
   <stop id="stop3698" style="stop-color:#ff921a" offset="1"/>
  </radialGradient>
  <linearGradient id="linearGradient3629" y2="9.58" gradientUnits="userSpaceOnUse" x2="21.483" gradientTransform="matrix(1.0639 0 0 1.0677 -6.8562 -9.1629)" y1="36.255" x1="21.483">
   <stop id="stop3605" style="stop-color:#a7651c" offset="0"/>
   <stop id="stop3607" style="stop-color:#c8a700" offset="1"/>
  </linearGradient>
  <radialGradient id="radialGradient3897" gradientUnits="userSpaceOnUse" cy="4.625" cx="62.625" gradientTransform="matrix(1.4118 0 0 .56471 -72.412 23.388)" r="10.625">
   <stop id="stop8840" offset="0"/>
   <stop id="stop8842" style="stop-opacity:0" offset="1"/>
  </radialGradient>
  <linearGradient id="linearGradient5530" y2="39.268" gradientUnits="userSpaceOnUse" x2="24.139" gradientTransform="matrix(.37573 0 0 .37346 16.248 14.686)" y1="7.0479" x1="24.139">
   <stop id="stop3945" style="stop-color:#fff" offset="0"/>
   <stop id="stop3947" style="stop-color:#fff;stop-opacity:0" offset="1"/>
  </linearGradient>
  <radialGradient id="radialGradient2885" gradientUnits="userSpaceOnUse" cy="51.695" cx="69.448" gradientTransform="matrix(0 .46490 -.50576 0 49.574 -14.296)" r="31">
   <stop id="stop3244-5" style="stop-color:#eef87e" offset="0"/>
   <stop id="stop3246-9" style="stop-color:#cde34f" offset=".26238"/>
   <stop id="stop3248-7" style="stop-color:#93b723" offset=".66094"/>
   <stop id="stop3250-8" style="stop-color:#5a7e0d" offset="1"/>
  </radialGradient>
  <linearGradient id="linearGradient2887" y2="51.244" gradientUnits="userSpaceOnUse" x2="72.422" gradientTransform="matrix(.19311 0 0 .19469 8.006 5.8601)" y1="124.76" x1="72.422">
   <stop id="stop2492-3" style="stop-color:#365f0e" offset="0"/>
   <stop id="stop2494-8" style="stop-color:#84a718" offset="1"/>
  </linearGradient>
 </defs>
 <g id="layer1">
  <path id="path8836" style="opacity:.3;fill-rule:evenodd;fill:url(#radialGradient3897)" d="m31 26c0 3.3137-6.7157 6-15 6-8.2842 0-15-2.686-15-6s6.7158-6 15-6c8.2843 0 15 2.6863 15 6z"/>
  <path id="path1307" style="stroke-linejoin:round;stroke:url(#linearGradient3629);stroke-width:.99227;fill:url(#radialGradient3627)" d="m16 1.4974c0.97878 0 4.1344 7.9109 4.9262 8.4883 0.79185 0.57739 9.2637 1.1447 9.5661 2.079 0.30246 0.93423-6.2191 6.3908-6.5215 7.325-0.30246 0.93423 1.7778 9.1958 0.98597 9.7731-0.79185 0.57739-7.978-3.9612-8.9568-3.9612-0.97878 0-8.1649 4.5386-8.9568 3.9612-0.7915-0.577 1.2888-8.838 0.9864-9.772-0.3025-0.935-6.8241-6.391-6.5216-7.325 0.3025-0.935 8.7743-1.502 9.5663-2.0793 0.79185-0.57739 3.9474-8.4883 4.9262-8.4883z"/>
  <path id="path11014" style="opacity:.3;stroke:#fff;fill:none" d="m24.029 28.151s-2.783-2.4119-6.4936-3.154"/>
  <path id="path11985" style="opacity:.3;stroke:#fff;fill:none" d="m7.7354 28.151s2.783-2.4119 6.4936-3.154"/>
  <path id="path3849" style="opacity:.4;stroke-linejoin:round;stroke:url(#linearGradient3851);fill:none" d="m15.719 19.219c-1.3475 2.6026-2.7118 5.3524-4.0625 7.9375a0.33524 0.33524 0 0 1 -0.25 0.1875c-2.9057 0.474-5.9199 0.99-8.8435 1.468 2.0554 2.09 4.0392 4.254 6.0937 6.313a0.33524 0.33524 0 0 1 0.0938 0.313c-0.4393 2.8598-0.68023 5.6037-1.0938 8.4688l7.875-3.9375a0.33524 0.33524 0 0 1 0.3125 0l7.906 3.936c-0.424-2.85-0.747-5.541-1.188-8.406a0.33524 0.33524 0 0 1 0.0625 -0.25 0.33524 0.33524 0 0 1 0.03125 -0.0625c2.069-2.074 4.142-4.273 6.219-6.376-2.755-0.629-5.94-0.99-8.875-1.468a0.33524 0.33524 0 0 1 -0.156 -0.094 0.33524 0.33524 0 0 1 -0.094 -0.094c-1.3513-2.5864-2.6886-5.3366-4.0312-7.9375z" transform="translate(.28985 -16.29)"/>
  <path id="path3853" style="opacity:.8;fill:url(#linearGradient3855)" d="m15.719 18.531c-0.25445 0.37409-2.3468 3.4728-4.375 8.25a0.20608 0.20608 0 0 1 -0.032 0.031 0.20608 0.20608 0 0 1 -0.093 0.063 0.20608 0.20608 0 0 1 -0.031 0.031c-3.0053 0.49005-7.003 1.0387-9.3125 1.6875 1.5783 2.0005 3.5605 3.737 5.3438 5.5625l20.25-3.5938c0.58279-0.58415 1.7128-1.7131 2-2-2.872-0.77688-6.2395-1.1341-9.25-1.625a0.20608 0.20608 0 0 1 -0.031 -0.031 0.20608 0.20608 0 0 1 -0.094 -0.062 0.20608 0.20608 0 0 1 -0.032 -0.032c-1.5252-3.5409-4.0563-7.801-4.3438-8.2812z" transform="translate(.28985 -16.29)"/>
  <path id="path2262" style="stroke-linejoin:round;stroke-width:.98543;color:#000000;stroke:url(#linearGradient2887);stroke-linecap:round;fill:url(#radialGradient2885)" d="m22.5 20.5v-4.021h5v4.021h4.0073v5h-4.0073v4.0073h-5v-4.0073h-4.0073v-5h4.0073z"/>
  <path id="path2272" style="opacity:.4;stroke:url(#linearGradient5530);fill:none" d="m23.5 21.5v-4h3v4h4.02v3h-4.02v4h-3v-4h-4v-3h4z"/>
 </g>
</svg>
